X: 7851
T: Commodore, The
R: reel
M: 4/4
K: Dmajor
fg|:agaf gfge|fedf ecAb|ad (3ded bdad|cdef g2fg|
agfa gfeg|fedf ecAB|(3cBA eA fAef|1 gece defg:|2 gece d2AG||
|:FAde =f2d=f|e=c (3=cd=c A=cGE|=CE=GA _B=c_BG|Adag fdAG|
FAde =f2d=f|e=cg=c a=cfg|aged (3cBA ef|1 gece d2AG:|2 gece defg||

